X:1043
T:Perth=Shire Hunt.
C:N.G.
M:C
L:1/8
Q:1/2=104
I: :| ||
Z:Jack Campin * www.campin.me.uk * 2009
K:D
B|TA2    FA DAFA|DAFA     BEEB|TA2    FA DAFd| fa`eg fdd:|
a| f/e/d ad bdad|f/e/d af beea| f/e/d ad bdad| A>Bde fdda|
   f/e/d ad bdad|f/e/d af beeg| fadf     gbef|TA>Bde fdd|]

